X: 37009
T: Siege Of Ennis, The
R: polka
M: 2/4
K: Gmajor
|:DE GA|Bd A2|Bd AB/A/|GE EG|
DE GA|Bd A2|Bd AB/A/|G2 G2:|
A||Bd dB|ce ed|Bd AB/A/|GE EA|
Bd dB|ce ef|g2 fd|e2 ef|
g2 fd|ed BA|Bd AB/A/|GE EG|
DE GA|Bd A2|Bd AB/A/|G2 G2||

